package/converter/svg/thin/j.svg

<svg xmlns="http://www.w3.org/2000/svg" viewBox="0 0 320 512"><!-- Font Awesome Pro 6.0.0-alpha2 by @fontawesome - https://fontawesome.com License - https://fontawesome.com/license (Commercial License) --><path d="M160 480C71.781 480 0 408.219 0 320V264C0 259.594 3.594 256 8 256S16 259.594 16 264V320C16 399.406 80.594 464 160 464S304 399.406 304 320V40C304 35.594 307.594 32 312 32S320 35.594 320 40V320C320 408.219 248.219 480 160 480Z"/></svg>

<svg xmlns="http://www.w3.org/2000/svg" viewBox="0 0 320 512"><!--! Font Awesome Pro 6.6.0 by @fontawesome - https://fontawesome.com License - https://fontawesome.com/license (Commercial License) Copyright 2024 Fonticons, Inc. --><path d="M312 32c4.4 0 8 3.6 8 8l0 280c0 88.4-71.6 160-160 160S0 408.4 0 320l0-56c0-4.4 3.6-8 8-8s8 3.6 8 8l0 56c0 79.5 64.5 144 144 144s144-64.5 144-144l0-280c0-4.4 3.6-8 8-8z"/></svg>
